X: 7982
T: Conjunction
R: reel
M: 4/4
K: Bminor
"Bm7"FBBA B2fe|"D(add G)"ed2B- BAFE|"Gmaj9"F2BF GDBG|"A"ABBA- AB"/F#"fe|
"Bm7"f2ae- ed"F#m"AB|BdAE FA~A2|"Em"fdAF GBed|"A/F#"cAed- "Gmaj9"dcBA:|
"Bm7"~f3a bf"D(add G)"~a2-|abfa bfdf|"Em"dege fd"A/F#"~e2-|efde fBde|
"Bm7"~f3a bf"D(add G)"~a2-|abfa bfd2|"Em"deec df"A/F#"ec-|cdAF "Gmaj9"ABBA:|

